public/icons/account.svg

<svg xmlns:xlink="http://www.w3.org/1999/xlink" xmlns="http://www.w3.org/2000/svg" viewBox="0 0 25 24" height="24" width="25" preserveAspectRatio="xMidYMid meet" class="xvy4d1p xxk0z11" fill="none"><title>account-box</title><path d="M3.5 5V19C3.5 20.1 4.39 21 5.5 21H19.5C20.6 21 21.5 20.1 21.5 19V5C21.5 3.9 20.6 3 19.5 3H5.5C4.39 3 3.5 3.9 3.5 5ZM15.5 9C15.5 10.66 14.16 12 12.5 12C10.84 12 9.5 10.66 9.5 9C9.5 7.34 10.84 6 12.5 6C14.16 6 15.5 7.34 15.5 9ZM6.5 17C6.5 15 10.5 13.9 12.5 13.9C14.5 13.9 18.5 15 18.5 17V18H6.5V17Z" fill="#ffffffe6"></path></svg>

<svg xmlns="http://www.w3.org/2000/svg" height="24" width="25" preserveAspectRatio="xMidYMid meet" fill="none" xmlns:v="https://vecta.io/nano"><path d="M3.5 5v14a2 2 0 0 0 2 2h14c1.1 0 2-.9 2-2V5c0-1.1-.9-2-2-2h-14a2 2 0 0 0-2 2zm12 4c0 1.66-1.34 3-3 3s-3-1.34-3-3 1.34-3 3-3 3 1.34 3 3zm-9 8c0-2 4-3.1 6-3.1s6 1.1 6 3.1v1h-12v-1z" fill="#ffffffe6"/></svg>
